icons/arrow-tray-right.svg

<svg xmlns="http://www.w3.org/2000/svg" width="24" height="24" viewBox="0 0 24 24">
  <path d="M21,14 C21.5522847,14 22,14.4477153 22,15 L22,15 L22,19 L21.9949073,19.1762728 C21.9036609,20.75108 20.5976809,22 19,22 L19,22 L5,22 L4.82372721,21.9949073 C3.24891996,21.9036609 2,20.5976809 2,19 L2,19 L2,15 L2.00672773,14.8833789 C2.06449284,14.3860402 2.48716416,14 3,14 C3.55228475,14 4,14.4477153 4,15 L4,15 L4,19 L4.00672773,19.1166211 C4.06449284,19.6139598 4.48716416,20 5,20 L5,20 L19,20 L19.1166211,19.9932723 C19.6139598,19.9355072 20,19.5128358 20,19 L20,19 L20,15 L20.0067277,14.8833789 C20.0644928,14.3860402 20.4871642,14 21,14 Z M18.8135366,7.41822039 C18.8277329,7.43814667 18.841573,7.45904955 18.8546295,7.4804822 C18.8610888,7.4909214 18.8672827,7.5015317 18.8732648,7.51222854 C18.8849663,7.53328872 18.8960049,7.55479635 18.9062701,7.57673814 C18.9150274,7.59540494 18.9231947,7.6144279 18.9307447,7.63363737 C18.9371193,7.64976355 18.9431898,7.66644729 18.9488223,7.68333139 C18.954859,7.70166106 18.9602745,7.71964515 18.9651732,7.73773997 L18.979633,7.79821824 L18.979633,7.79821824 C18.9832041,7.81609407 18.9863322,7.8337848 18.9889822,7.85153313 C18.9920941,7.87188555 18.994564,7.89294258 18.9963697,7.91418901 C18.9978612,7.9321496 18.9988858,7.94955466 18.9994578,7.96697183 C18.9998151,7.97759811 19,7.98877747 19,8 L18.9964029,8.08500243 L18.9964029,8.08500243 L18.989089,8.14823394 L18.989089,8.14823394 C18.9863595,8.1661262 18.9831099,8.18447854 18.9793458,8.202746 L18.9656522,8.26079566 L18.9656522,8.26079566 C18.9607234,8.27886083 18.9551054,8.29759761 18.9489267,8.31618895 C18.9431898,8.33355271 18.9371193,8.35023645 18.9306242,8.36670632 L18.9187611,8.39549631 L18.9187611,8.39549631 L18.9058541,8.42423212 C18.8971507,8.44270105 18.8879406,8.46085615 18.8782035,8.47868216 C18.8701866,8.49354877 18.8613648,8.5087703 18.8521085,8.5238 C18.8384932,8.54569831 18.8245831,8.56645332 18.8099369,8.58663947 C18.8037205,8.5953343 18.7970905,8.60416028 18.7902954,8.61289944 C18.7848777,8.6197272 18.7826022,8.62259451 18.7803112,8.62544899 L18.7071068,8.70710678 L14.4644661,12.9497475 C14.0739418,13.3402718 13.4407768,13.3402718 13.0502525,12.9497475 C12.6897686,12.5892635 12.662039,12.0220325 12.9670639,11.6297412 L13.0502525,11.5355339 L15.585,8.99935931 L6,9 C5.44771525,9 5,8.55228475 5,8 C5,7.48716416 5.38604019,7.06449284 5.88337887,7.00672773 L6,7 L15.585,6.99935931 L13.0502525,4.46446609 C12.6597282,4.0739418 12.6597282,3.44077682 13.0502525,3.05025253 C13.4107365,2.68976857 13.9779675,2.66203903 14.3702588,2.96706393 L14.4644661,3.05025253 L18.7071068,7.29289322 L18.779,7.37435931 L18.7833908,7.37840751 L18.8135366,7.41822039 L18.8135366,7.41822039 Z"/>
</svg>

<svg xmlns="http://www.w3.org/2000/svg" viewBox="0 0 24 24">
  <path d="M21 14a1 1 0 0 1 1 1v4.18A3 3 0 0 1 19 22H4.82A3 3 0 0 1 2 19v-4.12A1 1 0 0 1 4 15v4.12A1 1 0 0 0 5 20h14.12a1 1 0 0 0 .88-1v-4.12a1 1 0 0 1 1-.88zm-2.19-6.58a1.04 1.04 0 0 1 .16.32l.01.06A1.1 1.1 0 0 1 19 8v.09l-.01.06-.01.05-.01.06a1.07 1.07 0 0 1-.04.1l-.01.04-.01.02a1.03 1.03 0 0 1-.13.2l-.07.09-4.25 4.24a1 1 0 0 1-1.5-1.32l.09-.1L15.59 9H6a1 1 0 0 1-.12-2h9.72l-2.54-2.54a1 1 0 0 1 1.32-1.5l.1.09 4.24 4.24.07.08.03.05z"/>
</svg>
